resources/icons/20px/rocket-slant.svg

<?xml version="1.0" encoding="utf-8"?>
<svg width="20" height="20" viewBox="0 0 20 20" fill="none" xmlns="http://www.w3.org/2000/svg">
<path fill-rule="evenodd" clip-rule="evenodd" d="M10 5C12.1213 2.87868 16.308 2.07576 18 2C17.9242 3.69201 17.1213 7.87868 15 10C13.8076 11.1924 12.4565 11.8226 11.252 12.3845C10.8099 12.5908 10.3875 12.7878 10 13C9.79698 13.1112 9.40268 13.302 9.01426 13.4899L9.01421 13.4899L9.0142 13.4899C8.5703 13.7047 8.13412 13.9158 8 14L6 12C6.15792 11.7485 7 10 7 10C7 10 8.36998 6.63002 10 5ZM15 6C15 6.55228 14.5523 7 14 7C13.4477 7 13 6.55228 13 6C13 5.44772 13.4477 5 14 5C14.5523 5 15 5.44772 15 6ZM3 17C3 17 3 15 5 13L7 15C5 17 3 17 3 17ZM14 15L10 19L8.70244 14.7668C9.7348 14.207 10.5832 13.8054 11.3453 13.4446C12.6196 12.8415 13.6522 12.3527 14.899 11.4298L14 15ZM1 10L5 6L8.55678 5.10102C7.6339 6.34782 7.14512 7.38044 6.54195 8.65471C6.18125 9.41674 5.77964 10.2652 5.21983 11.2975L1 10Z" fill="black"/>
</svg>

<svg xmlns="http://www.w3.org/2000/svg" viewBox="0 0 20 20">
  <path d="M10 5c2.121-2.121 6.308-2.924 8-3-.076 1.692-.879 5.879-3 8-1.192 1.192-2.543 1.823-3.748 2.384-.442.207-.865.404-1.252.616-.203.111-.597.302-.986.49-.444.215-.88.426-1.014.51l-2-2c.158-.252 1-2 1-2s1.37-3.37 3-5m5 1a1 1 0 1 1-2 0 1 1 0 0 1 2 0M3 17s0-2 2-4l2 2c-2 2-4 2-4 2m11-2-4 4-1.298-4.233c1.033-.56 1.881-.962 2.643-1.322 1.275-.604 2.307-1.092 3.554-2.015zM1 10l4-4 3.557-.899c-.923 1.247-1.412 2.28-2.015 3.554-.36.762-.762 1.61-1.322 2.643z"/>
</svg>
